X: 20963
T: Judge's Dilemma, The
R: jig
M: 6/8
K: Amixolydian
a|AAA ccc|BBB G2B|AAA ccc|ceA ccc|
BBB ccc|BBB G2B|AAA ceB|cAA A2:|
e|AAA cac|BBB G2B|AAA caA|ceA caA|
dfA cac|BBB G2B|AAA ceB|cAA A2:|
f|ece AAA|BBB G2f|ece AAA|cAA Ace|
fec ecA|BBB G2B|AAA ceB|cAA A2:|
e|caa cac|BBB G2e|caa gaa|faa eaa|
daa caa|BBB G2B|AAA ceB|cAA A2:|

